X: 7
T:Il Est Bien Temps
M:2/4
L:1/8
S:French Creek
K:D
({GF}G2) A_B|AG FD|({GF}G2) A_B|c_B AB|({GF}G2)A_B|AG FD|G_B AF|G2G2:||!
({GF}G2)A_B|c_B AB|({d^c}d2)=c_B|AG FD|({GF}G2)A_B|c_
B AB|G_B FA|G2G2:||
